X: 40182
T: Time To Time
R: waltz
M: 3/4
K: Gmajor
|:(3DEF GA Bd|[db]2 [ca]2 [Bg]2|[ce]2 gB DB|Ad fg fd|(3DEF GA Bd|[db]2 [ca]2 [Bg]2|[ce]2 [Bg]2 [cf]2|[Bg]g BD gB:|
|:d'g dG dg|e'g cE cg|df ga gf|d'g dG dg|e'g cE cg|Ad fg af|g2 z4:|
|:bc' ba gd|de g4|bc' ba gd|Ad fg fd|bc' ba gd|^ce ga gd|cd eg af|g6:|

